images/Tech_java.svg

<svg width="100" height="54" viewBox="0 0 100 54" fill="none" xmlns="http://www.w3.org/2000/svg">
<path fill-rule="evenodd" clip-rule="evenodd" d="M65.0421 39.5563C65.0269 39.927 64.1531 40.4219 63.8682 40.6036C62.5517 41.4371 60.6595 41.9894 59.4265 40.7545C58.232 39.5618 58.5682 37.3334 59.8567 36.5439C60.5044 36.1522 61.3439 35.9687 62.2246 35.8944C62.9283 35.8348 64.3673 35.7086 65.0269 35.7834L65.0421 39.5563ZM56.1393 28.0481L56.6554 30.0797C57.5228 29.8696 58.0448 29.5618 59.3522 29.304C60.371 29.1072 61.4792 28.9944 62.5687 29.1357C63.6677 29.2751 64.2815 29.688 64.6581 30.5022C64.8489 30.9132 64.9522 31.3985 65.0058 31.9054L64.9944 33.549C64.9214 33.5852 61.7086 33.7898 61.248 33.8472C58.0407 34.2582 54.8127 36.0013 55.3155 40.0302C55.6269 42.538 56.9783 43.6788 59.5109 43.9866C60.9003 44.1531 61.8177 43.9944 62.9664 43.5068C63.4517 43.3022 63.9031 43.0655 64.3118 42.8054C64.8604 42.4655 65.3402 41.9742 65.4508 41.9127L65.7893 43.6352H68.3925C68.4402 43.1077 68.4022 36.6646 68.4022 35.9476V32.0944C68.4022 30.8504 68.3086 29.8678 67.7237 28.9449C65.9613 26.1371 62.1292 26.2705 58.9622 27.0352C58.2549 27.2054 56.5733 27.6678 56.1393 28.0481Z" fill="#989898"/>
<path fill-rule="evenodd" clip-rule="evenodd" d="M96.3206 39.78C96.0972 39.9085 95.86 40.1337 95.6041 40.3213C94.8701 40.8507 93.9582 41.3397 92.9912 41.4603C90.1243 41.814 89.4495 38.8571 90.371 37.3337C91.3573 35.7052 94.4784 35.7952 96.3302 35.7874L96.3206 39.78ZM87.4353 28.0598C87.4541 28.3773 87.8458 29.853 87.9743 30.0841C88.4577 29.9864 89.5183 29.5374 90.6825 29.3098C92.3701 28.9773 95.1417 28.6965 95.9536 30.5163C96.2843 31.2594 96.5233 33.3163 96.2903 33.5511C96.1449 33.658 94.7362 33.6676 94.4132 33.6887C92.5518 33.8071 91.011 33.9488 89.3963 34.7993C87.6834 35.6956 86.2577 37.2727 86.6114 40.0534C86.9325 42.5782 88.2839 43.6832 90.8087 43.9984C92.6646 44.2296 94.1247 43.7497 95.6119 42.8172C96.2577 42.408 96.5311 42.0566 96.7527 41.9112L97.0798 43.641L99.6963 43.6447V32.1062C99.6963 30.8066 99.5949 29.9007 99.0022 28.9296C97.2972 26.1355 93.36 26.3227 90.2655 27.0452C89.5412 27.2135 87.888 27.6741 87.4353 28.0598Z" fill="#989898"/>
<path fill-rule="evenodd" clip-rule="evenodd" d="M75.6594 43.6725H79.8319C79.9695 43.6404 80.2636 42.9675 80.3438 42.8051C80.5007 42.4822 80.6269 42.1877 80.7741 41.8647C81.0549 41.2551 81.3131 40.5725 81.5576 39.9207C82.5649 37.2239 83.3792 34.2803 84.0727 31.4652C84.2429 30.7735 85.0457 27.4267 85.0457 26.9468L81.9264 26.945C81.2461 26.9372 81.5214 26.8514 81.3397 28.2386C81.1503 29.6799 80.8484 31.1212 80.5007 32.478C80.2466 33.4684 78.4787 39.7698 78.1269 40.1748L77.236 36.7996C76.9016 35.6776 76.5957 34.5959 76.2443 33.4932L74.7058 28.6001C74.5296 28.0478 74.3613 27.4592 74.159 26.9542L70.4741 26.945C70.4893 27.2716 72.8957 34.7927 73.0581 35.3221C73.4975 36.7556 73.926 38.0707 74.3594 39.4771C74.7819 40.8652 75.2769 42.2964 75.6594 43.6725Z" fill="#989898"/>
<path fill-rule="evenodd" clip-rule="evenodd" d="M49.1514 26.5932L49.155 41.0735C49.155 43.7661 48.2761 46.834 45.5757 47.717C45.7321 48.0436 46.8959 49.2386 47.206 49.6991C48.1211 49.5386 49.4647 48.6996 49.9716 48.2198C50.7454 47.4895 51.2216 46.9198 51.7927 45.7501C52.9376 43.4184 52.7564 40.9473 52.7564 38.151C52.7564 32.4358 52.7849 26.7157 52.7541 21.0005C52.3339 20.9262 49.8605 20.9739 49.1514 20.9757V26.5932Z" fill="#989898"/>
<path fill-rule="evenodd" clip-rule="evenodd" d="M19.6619 29.0904L18.5266 27.4427C18.1554 26.9 17.7908 26.2977 17.4444 25.6977C16.8082 24.5908 16.0454 23.1881 15.6958 21.7927C15.0554 19.2395 16.6321 17.6546 18.0256 15.9803C18.2357 15.7262 18.4825 15.4872 18.71 15.2486C20.1665 13.7138 22.1637 11.8752 23.7174 10.3615C25.2981 8.81697 26.2499 7.10826 26.4334 4.60642C26.533 3.30092 26.2825 0.504587 25.3596 0C25.6325 1.96101 25.6977 3.29129 24.9045 5.26193C23.9853 7.54771 22.4885 8.91652 20.7513 10.2674C19.333 11.3743 17.0087 13.3661 15.7857 14.5202C14.9926 15.2716 13.6527 16.6151 13.0981 17.928C12.2784 19.8684 13.0908 21.1372 13.9701 22.4922C14.3885 23.1404 14.8146 23.6908 15.2619 24.2697C15.7839 24.9463 16.2463 25.411 16.6651 25.9404C17.1045 26.5005 17.6472 27.0165 18.1288 27.5477C18.427 27.8784 19.3655 28.8817 19.6619 29.0904Z" fill="#989898"/>
<path fill-rule="evenodd" clip-rule="evenodd" d="M36.495 45.9094C37.051 46.8057 36.5023 47.1864 35.7418 47.542C32.3647 49.1222 20.9423 49.4186 17.3757 49.4704C13.7386 49.5236 10.0748 49.3805 6.56198 48.7649C5.99226 48.6653 3.49042 48.2681 3.37345 47.603C3.2973 47.1842 3.73859 46.8708 3.96794 46.7296C4.77666 46.2268 6.25602 45.8809 7.27437 45.6956C7.56886 45.6419 8.27987 45.5653 8.4996 45.4754C6.79868 45.2254 1.40694 46.1369 0.227578 47.8131C-0.516 48.8681 0.73033 49.3575 1.55969 49.6286C4.66749 50.6438 11.1354 50.8502 14.5473 50.8998C19.6464 50.9686 31.9193 50.9172 36.4143 47.8264C36.6785 47.6488 37.1927 47.2722 37.2459 46.9071C37.3111 46.4525 36.7721 46.0259 36.495 45.9094Z" fill="#989898"/>
<path fill-rule="evenodd" clip-rule="evenodd" d="M21.779 31.1672C22.3221 30.9818 23.9217 29.6704 24.3519 29.2309C24.9175 28.6442 25.8808 27.5584 25.9629 26.3029C26.0359 25.1635 25.2519 23.6805 24.7703 22.9543C23.2529 20.6529 22.0409 19.336 24.0955 16.7864C24.7818 15.936 25.5272 15.2708 26.3969 14.552C27.4386 13.6901 29.1455 12.5126 30.3666 11.7461L31.7584 10.8516C31.0221 10.9493 29.0707 11.7309 28.3006 12.0176C27.2666 12.4075 26.074 12.9997 25.1717 13.5199C22.0717 15.3126 19.0212 18.1167 20.2694 21.9947C21.112 24.619 23.5698 26.1901 23.3941 28.1566C23.2854 29.3607 22.129 30.5649 21.779 31.1672Z" fill="#989898"/>
<path fill-rule="evenodd" clip-rule="evenodd" d="M28.2534 43.9939C27.3015 43.6324 26.5846 43.2136 25.7323 42.7072C25.2373 42.4131 25.4286 42.4361 24.7956 42.5925C22.2171 43.2292 18.0355 43.237 15.3272 43.1544C14.6313 43.1338 12.6722 43.0723 12.2768 42.4168C12.0245 42.004 12.3667 41.7021 12.5001 41.4668C10.7268 41.8241 8.9185 43.298 11.3878 44.5269C14.1648 45.9049 20.0024 45.9205 23.041 45.3792C23.907 45.2246 27.8387 44.3283 28.2534 43.9939Z" fill="#989898"/>
<path fill-rule="evenodd" clip-rule="evenodd" d="M29.0748 38.1998C28.3391 38.0163 27.6817 37.5576 27.2308 37.164C26.8391 36.8278 26.9725 36.9099 26.1299 37.0512C23.0927 37.5576 14.056 38.4407 11.4684 37.3741C11.1317 37.2365 10.7455 37.0283 10.7207 36.6329C10.6941 36.1645 11.0918 35.9122 11.2579 35.6562C9.17621 35.914 7.17896 37.9191 9.96566 38.8764C13.1079 39.9526 19.8854 39.9888 23.2285 39.5686C24.3294 39.4269 28.2322 38.6682 29.0748 38.1998Z" fill="#989898"/>
<path fill-rule="evenodd" clip-rule="evenodd" d="M31.164 31.3844C30.7682 31.3996 30.2388 31.5239 29.8393 31.5867C29.3769 31.6555 28.9351 31.7244 28.4728 31.7858C25.6897 32.1757 22.6049 32.489 19.8205 32.6514C17.6471 32.7794 9.4457 33.051 8.2223 31.9078C8.13239 31.3959 8.71909 31.073 9.08056 30.8757C10.4874 30.123 11.9819 29.8689 13.3677 29.4349C11.4544 29.2551 6.64203 30.6312 4.90258 31.7189C3.02184 32.8922 6.15625 33.3588 7.3301 33.523C14.1952 34.4789 20.6136 33.9666 27.4026 33.0014C28.5113 32.8445 28.7462 32.9078 29.5012 32.4299C30.0209 32.0973 30.7035 31.7491 31.164 31.3844Z" fill="#989898"/>
<path fill-rule="evenodd" clip-rule="evenodd" d="M7.43872 52.0555C9.35569 52.8605 13.53 53.3514 15.6956 53.5275C18.7419 53.7775 22.0851 53.7165 25.13 53.5028C29.0708 53.2234 33.7461 52.7725 37.213 51.0101C38.0369 50.5894 39.524 49.5862 39.6672 48.6211C39.4185 48.7339 39.2048 48.9592 38.9736 49.116C32.8571 53.3266 18.8777 52.9252 11.6607 52.411L7.43872 52.0555Z" fill="#989898"/>
<path fill-rule="evenodd" clip-rule="evenodd" d="M32.5494 29.7352C34.048 29.2673 35.753 29.5788 36.703 30.4232C37.7274 31.337 37.7407 33.0723 36.9989 34.4164C36.0108 36.2072 33.9333 37.8067 32.2113 38.8847C31.9173 39.0723 31.6324 39.2118 31.376 39.4008C32.4847 39.2843 35.1163 38.0953 36.1182 37.4778C37.3948 36.6888 38.8205 35.5361 39.4095 34.0434C40.2485 31.9255 39.0269 30.3067 37.7255 29.5425C36.9783 29.1044 36.0741 28.843 35.0228 28.8866C34.2182 28.9191 32.9127 29.2384 32.5494 29.7352Z" fill="#989898"/>
</svg>

<?xml version="1.0" encoding="UTF-8" standalone="no"?><!DOCTYPE svg PUBLIC "-//W3C//DTD SVG 1.1//EN" "http://www.w3.org/Graphics/SVG/1.1/DTD/svg11.dtd"><svg width="100%" height="100%" viewBox="0 0 100 54" version="1.1" xmlns="http://www.w3.org/2000/svg" xmlns:xlink="http://www.w3.org/1999/xlink" xml:space="preserve" xmlns:serif="http://www.serif.com/" style="fill-rule:evenodd;clip-rule:evenodd;stroke-linejoin:round;stroke-miterlimit:2;"><path d="M7.439,52.056c1.917,0.804 6.091,1.295 8.257,1.471c3.046,0.251 6.389,0.19 9.434,-0.024c3.941,-0.28 8.616,-0.73 12.083,-2.493c0.824,-0.421 2.311,-1.424 2.454,-2.389c-0.248,0.113 -0.462,0.338 -0.693,0.495c-6.117,4.211 -20.096,3.809 -27.313,3.295l-4.222,-0.355Zm29.056,-6.147c0.556,0.897 0.007,1.277 -0.753,1.633c-3.377,1.58 -14.8,1.877 -18.366,1.928c-3.637,0.054 -7.301,-0.09 -10.814,-0.705c-0.57,-0.1 -3.072,-0.497 -3.189,-1.162c-0.076,-0.419 0.366,-0.732 0.595,-0.873c0.809,-0.503 2.288,-0.849 3.306,-1.034c0.295,-0.054 1.006,-0.131 1.226,-0.221c-1.701,-0.25 -7.093,0.662 -8.272,2.338c-0.744,1.055 0.502,1.544 1.332,1.816c3.107,1.015 9.575,1.221 12.987,1.271c5.099,0.069 17.372,0.017 21.867,-3.074c0.265,-0.177 0.779,-0.554 0.832,-0.919c0.065,-0.455 -0.474,-0.881 -0.751,-0.998Zm12.656,-19.316l0.004,14.48c-0,2.693 -0.879,5.761 -3.579,6.644c0.156,0.327 1.32,1.522 1.63,1.982c0.915,-0.16 2.259,-0.999 2.766,-1.479c0.773,-0.731 1.25,-1.3 1.821,-2.47c1.145,-2.332 0.963,-4.803 0.963,-7.599c-0,-5.715 0.029,-11.435 -0.002,-17.151c-0.42,-0.074 -2.893,-0.026 -3.603,-0.024l-0,5.617Zm-20.898,17.401c-0.951,-0.362 -1.668,-0.78 -2.521,-1.287c-0.495,-0.294 -0.303,-0.271 -0.936,-0.115c-2.579,0.637 -6.76,0.645 -9.469,0.562c-0.696,-0.02 -2.655,-0.082 -3.05,-0.737c-0.252,-0.413 0.09,-0.715 0.223,-0.95c-1.773,0.357 -3.581,1.831 -1.112,3.06c2.777,1.378 8.614,1.393 11.653,0.852c0.866,-0.154 4.798,-1.051 5.212,-1.385Zm59.182,-15.934c0.019,0.317 0.411,1.793 0.539,2.024c0.484,-0.098 1.544,-0.547 2.709,-0.774c1.687,-0.333 4.459,-0.614 5.271,1.206c0.33,0.743 0.569,2.8 0.336,3.035c-0.145,0.107 -1.554,0.117 -1.877,0.138c-1.861,0.118 -3.402,0.26 -5.017,1.11c-1.713,0.897 -3.138,2.474 -2.785,5.254c0.322,2.525 1.673,3.63 4.198,3.945c1.856,0.232 3.316,-0.248 4.803,-1.181c0.646,-0.409 0.919,-0.76 1.141,-0.906l0.327,1.73l2.616,0.004l-0,-11.539c-0,-1.299 -0.101,-2.205 -0.694,-3.176c-1.705,-2.795 -5.642,-2.607 -8.736,-1.885c-0.725,0.168 -2.378,0.629 -2.831,1.015Zm-31.296,-0.012l0.516,2.032c0.868,-0.21 1.39,-0.518 2.697,-0.776c1.019,-0.197 2.127,-0.31 3.217,-0.168c1.099,0.139 1.713,0.552 2.089,1.366c0.191,0.411 0.294,0.896 0.348,1.403l-0.012,1.644c-0.073,0.036 -3.285,0.241 -3.746,0.298c-3.207,0.411 -6.435,2.154 -5.932,6.183c0.311,2.508 1.662,3.649 4.195,3.957c1.389,0.166 2.307,0.007 3.455,-0.48c0.486,-0.205 0.937,-0.442 1.346,-0.702c0.548,-0.34 1.028,-0.831 1.139,-0.892l0.338,1.722l2.604,-0c0.047,-0.527 0.009,-6.97 0.009,-7.687l-0,-3.854c-0,-1.244 -0.093,-2.226 -0.678,-3.149c-1.763,-2.808 -5.595,-2.675 -8.762,-1.91c-0.707,0.17 -2.389,0.633 -2.823,1.013Zm19.52,15.624l4.173,-0c0.138,-0.032 0.432,-0.705 0.512,-0.867c0.157,-0.323 0.283,-0.617 0.43,-0.94c0.281,-0.61 0.539,-1.293 0.784,-1.944c1.007,-2.697 1.821,-5.641 2.515,-8.456c0.17,-0.692 0.973,-4.038 0.973,-4.518l-3.12,-0.002c-0.68,-0.008 -0.405,-0.094 -0.586,1.294c-0.19,1.441 -0.492,2.882 -0.839,4.239c-0.254,0.99 -2.022,7.292 -2.374,7.697l-0.891,-3.375c-0.334,-1.122 -0.64,-2.204 -0.992,-3.307l-1.538,-4.893c-0.176,-0.552 -0.345,-1.141 -0.547,-1.646l-3.685,-0.009c0.015,0.327 2.422,7.848 2.584,8.377c0.44,1.434 0.868,2.749 1.301,4.155c0.423,1.388 0.918,2.819 1.3,4.195Zm20.662,-3.892c-0.224,0.128 -0.461,0.354 -0.717,0.541c-0.734,0.53 -1.646,1.019 -2.613,1.139c-2.867,0.354 -3.541,-2.603 -2.62,-4.126c0.986,-1.629 4.107,-1.539 5.959,-1.547l-0.009,3.993Zm-31.279,-0.224c-0.015,0.371 -0.889,0.866 -1.174,1.048c-1.316,0.833 -3.208,1.385 -4.441,0.15c-1.195,-1.192 -0.859,-3.421 0.43,-4.21c0.647,-0.392 1.487,-0.575 2.368,-0.65c0.703,-0.059 2.142,-0.185 2.802,-0.111l0.015,3.773Zm-35.967,-1.356c-0.736,-0.184 -1.393,-0.642 -1.844,-1.036c-0.392,-0.336 -0.258,-0.254 -1.101,-0.113c-3.037,0.507 -12.074,1.39 -14.662,0.323c-0.336,-0.138 -0.722,-0.346 -0.747,-0.741c-0.027,-0.469 0.371,-0.721 0.537,-0.977c-2.082,0.258 -4.079,2.263 -1.292,3.22c3.142,1.077 9.919,1.113 13.263,0.693c1.1,-0.142 5.003,-0.901 5.846,-1.369Zm3.474,-8.465c1.499,-0.468 3.204,-0.156 4.154,0.688c1.024,0.914 1.038,2.649 0.296,3.993c-0.988,1.791 -3.066,3.391 -4.788,4.469c-0.294,0.187 -0.579,0.327 -0.835,0.516c1.109,-0.117 3.74,-1.306 4.742,-1.923c1.277,-0.789 2.703,-1.942 3.292,-3.435c0.839,-2.118 -0.383,-3.736 -1.684,-4.501c-0.748,-0.438 -1.652,-0.699 -2.703,-0.655c-0.805,0.032 -2.11,0.351 -2.474,0.848Zm-1.385,1.649c-0.396,0.016 -0.925,0.14 -1.325,0.203c-0.462,0.068 -0.904,0.137 -1.366,0.199c-2.783,0.39 -5.868,0.703 -8.652,0.865c-2.174,0.128 -10.375,0.4 -11.599,-0.743c-0.09,-0.512 0.497,-0.835 0.859,-1.032c1.406,-0.753 2.901,-1.007 4.287,-1.441c-1.914,-0.18 -6.726,1.196 -8.465,2.284c-1.881,1.173 1.253,1.64 2.427,1.804c6.865,0.956 13.284,0.444 20.073,-0.522c1.108,-0.157 1.343,-0.093 2.098,-0.571c0.52,-0.333 1.203,-0.681 1.663,-1.046Zm-9.385,-0.217c0.543,-0.185 2.143,-1.497 2.573,-1.936c0.566,-0.587 1.529,-1.673 1.611,-2.928c0.073,-1.14 -0.711,-2.623 -1.193,-3.349c-1.517,-2.301 -2.729,-3.618 -0.674,-6.168c0.686,-0.85 1.431,-1.515 2.301,-2.234c1.042,-0.862 2.749,-2.039 3.97,-2.806l1.391,-0.894c-0.736,0.097 -2.687,0.879 -3.457,1.166c-1.034,0.389 -2.227,0.982 -3.129,1.502c-3.1,1.793 -6.151,4.597 -4.903,8.475c0.843,2.624 3.301,4.195 3.125,6.162c-0.109,1.204 -1.265,2.408 -1.615,3.01Zm-2.117,-2.077l-1.135,-1.647c-0.372,-0.543 -0.736,-1.145 -1.083,-1.745c-0.636,-1.107 -1.399,-2.51 -1.748,-3.905c-0.641,-2.554 0.936,-4.138 2.33,-5.813c0.21,-0.254 0.457,-0.493 0.684,-0.731c1.457,-1.535 3.454,-3.374 5.007,-4.888c1.581,-1.544 2.533,-3.253 2.716,-5.755c0.1,-1.305 -0.15,-4.101 -1.073,-4.606c0.273,1.961 0.338,3.291 -0.455,5.262c-0.92,2.286 -2.416,3.655 -4.154,5.005c-1.418,1.107 -3.742,3.099 -4.965,4.253c-0.793,0.752 -2.133,2.095 -2.688,3.408c-0.82,1.94 -0.007,3.209 0.872,4.564c0.419,0.648 0.845,1.199 1.292,1.778c0.522,0.676 0.984,1.141 1.403,1.67c0.44,0.56 0.982,1.076 1.464,1.608c0.298,0.33 1.237,1.334 1.533,1.542Z" style="fill:#9ea5a7;"/></svg>
